web/packages/design/src/ResourceIcon/assets/clearfeed.svg

<svg width="72" height="72" viewBox="0 0 72 72" fill="none" xmlns="http://www.w3.org/2000/svg">
<g clip-path="url(#clip0_15936_7074)">
<path d="M66 0.000488281H6C2.68629 0.000488281 0 2.68678 0 6.00049V66.0005C0 69.3142 2.68629 72.0005 6 72.0005H66C69.3137 72.0005 72 69.3142 72 66.0005V6.00049C72 2.68678 69.3137 0.000488281 66 0.000488281Z" fill="url(#paint0_linear_15936_7074)"/>
<path d="M49.7554 43.8943C52.0478 45.2159 52.8686 48.1973 51.058 50.1271C49.1404 52.1711 46.8176 53.8183 44.219 54.9533C40.1464 56.7319 35.611 57.1583 31.2782 56.1699C26.9456 55.1815 23.0436 52.8305 20.1454 49.4615C17.2471 46.0927 15.505 41.8835 15.1747 37.4517C14.8444 33.0201 15.9433 28.5991 18.3102 24.8379C20.677 21.0765 24.1872 18.1729 28.3256 16.5532C32.464 14.9334 37.0124 14.6828 41.3038 15.8381C44.0418 16.5753 46.5832 17.8601 48.7826 19.5972C50.8592 21.2373 50.4896 24.3073 48.4184 25.9543C46.347 27.6011 43.3438 27.1287 40.9862 25.9271C40.2964 25.5757 39.5684 25.2947 38.8126 25.0913C36.4998 24.4687 34.0486 24.6037 31.8182 25.4767C29.588 26.3495 27.6962 27.9145 26.4206 29.9415C25.145 31.9685 24.5528 34.3511 24.7308 36.7395C24.9088 39.1279 25.8476 41.3965 27.4096 43.2119C28.9716 45.0275 31.0744 46.2947 33.4096 46.8273C35.7446 47.3601 38.1888 47.1303 40.3836 46.1717C41.101 45.8583 41.7794 45.4727 42.4094 45.0227C44.563 43.4851 47.463 42.5727 49.7554 43.8943Z" fill="white"/>
</g>
<defs>
<linearGradient id="paint0_linear_15936_7074" x1="8.64825e-07" y1="1.26049" x2="72" y2="72.0005" gradientUnits="userSpaceOnUse">
<stop stop-color="#C784DA"/>
<stop offset="1" stop-color="#6D55FF"/>
</linearGradient>
<clipPath id="clip0_15936_7074">
<rect width="72" height="72" fill="white" transform="translate(0 0.000488281)"/>
</clipPath>
</defs>
</svg>

<svg xmlns="http://www.w3.org/2000/svg" width="72" height="72" fill="none" viewBox="0 0 72 72"><g clip-path="url(#a)"><path fill="url(#b)" d="M66 0H6a6 6 0 0 0-6 6v60a6 6 0 0 0 6 6h60a6 6 0 0 0 6-6V6a6 6 0 0 0-6-6"/><path fill="#fff" d="M49.755 43.894c2.293 1.322 3.114 4.303 1.303 6.233a20.783 20.783 0 1 1-2.275-30.53c2.076 1.64 1.707 4.71-.365 6.357s-5.074 1.175-7.432-.027a11.2 11.2 0 1 0 1.423 19.096c2.154-1.538 5.054-2.45 7.346-1.129"/></g><defs><linearGradient id="b" x1="0" x2="72" y1="1.26" y2="72.001" gradientUnits="userSpaceOnUse"><stop stop-color="#c784da"/><stop offset="1" stop-color="#6d55ff"/></linearGradient><clipPath id="a"><path fill="#fff" d="M0 0h72v72H0z"/></clipPath></defs></svg>
